icons/hexagon-percent.svg

<svg xmlns="http://www.w3.org/2000/svg" width="24" height="24" viewBox="0 0 24 24">
  <path d="M16.3173342,1 C17.0224657,1 17.6754933,1.37131518 18.0360686,1.97728201 L23.3914405,10.977282 C23.7664613,11.6075253 23.7664613,12.3924747 23.3914405,13.022718 L18.0360686,22.022718 C17.6754933,22.6286848 17.0224657,23 16.3173342,23 L7.68266576,23 C6.97753431,23 6.32450667,22.6286848 5.96393136,22.022718 L0.608559463,13.022718 C0.233538656,12.3924747 0.233538656,11.6075253 0.608559463,10.977282 L5.96393136,1.97728201 C6.32450667,1.37131518 6.97753431,1 7.68266576,1 L16.3173342,1 Z M16.5606602,14.4393398 C15.9748737,13.8535534 15.0251263,13.8535534 14.4393398,14.4393398 C13.8535534,15.0251263 13.8535534,15.9748737 14.4393398,16.5606602 C15.0251263,17.1464466 15.9748737,17.1464466 16.5606602,16.5606602 C17.1464466,15.9748737 17.1464466,15.0251263 16.5606602,14.4393398 Z M16.7071068,7.29289322 C16.3165825,6.90236893 15.6834175,6.90236893 15.2928932,7.29289322 L15.2928932,7.29289322 L7.29289322,15.2928932 L7.20970461,15.3871006 C6.90467972,15.7793918 6.93240926,16.3466228 7.29289322,16.7071068 C7.68341751,17.0976311 8.31658249,17.0976311 8.70710678,16.7071068 L8.70710678,16.7071068 L16.7071068,8.70710678 L16.7902954,8.61289944 C17.0953203,8.22060824 17.0675907,7.65337718 16.7071068,7.29289322 Z M9.56066017,7.43933983 C8.97487373,6.85355339 8.02512627,6.85355339 7.43933983,7.43933983 C6.85355339,8.02512627 6.85355339,8.97487373 7.43933983,9.56066017 C8.02512627,10.1464466 8.97487373,10.1464466 9.56066017,9.56066017 C10.1464466,8.97487373 10.1464466,8.02512627 9.56066017,7.43933983 Z"/>
</svg>

<svg xmlns="http://www.w3.org/2000/svg" viewBox="0 0 24 24">
  <path d="M16.32 1a2 2 0 0 1 1.72.98l5.35 9a2 2 0 0 1 0 2.04l-5.35 9a2 2 0 0 1-1.72.98H7.68a2 2 0 0 1-1.72-.98l-5.35-9a2 2 0 0 1 0-2.04l5.35-9A2 2 0 0 1 7.68 1h8.64zm.24 13.44a1.5 1.5 0 1 0-2.12 2.12 1.5 1.5 0 0 0 2.12-2.12zm.15-7.15a1 1 0 0 0-1.42 0l-8 8-.08.1a1 1 0 0 0 1.5 1.32l8-8 .08-.1a1 1 0 0 0-.08-1.32zm-7.15.15a1.5 1.5 0 1 0-2.12 2.12 1.5 1.5 0 0 0 2.12-2.12z"/>
</svg>
